X:1
T:Dainty Davie (2)
M:4/4
L:1/8
K:G
 DD| G3 A B2 c2| d2e-d c3 c| B2c-B A2 G2| G2B,-C D2 z D| G3 A B2 c2|\
 d2e-d c2d-c| B2A-GA-Bc-B| A4 G4| z4 z2 d2| e2 c2 A2B-c| d2 B2 G4|\
 c3 B A2 G2|F-GA-F D2 D2| G3 A B2 c2| d2e-d c4| B2A-GA-Bc-B| A4 G4|\
